logo-hugolify.svg

<svg width="1000" height="1000" fill="none" xmlns="http://www.w3.org/2000/svg"><path fill="#060C84" d="M.5.5h999v999H.5z"/><path d="M643.109 460.531v61.328H356.391v-61.328h286.718ZM356.391 216v568.75H281V216h75.391Zm361.718 0v568.75h-75V216h75Z" fill="white"/><path stroke="black" d="M.5.5h999v999H.5z"/></svg>

<svg width="1000" height="1000" viewBox="0 0 1000 1000" fill="none" xmlns="http://www.w3.org/2000/svg">
<rect x="0.5" y="0.5" width="999" height="999" fill="#A90940"/>
<path d="M643.109 460.531V521.859H356.391V460.531H498.578H643.109ZM356.391 216V784.75H281V216H356.391ZM718.109 216V784.75H643.109V216H718.109Z" fill="white"/>
<rect x="0.5" y="0.5" width="999" height="999" stroke="black"/>
</svg>
